X: 3106
T: JACK LATTIN
Q:"Reel."
R: Reel.
%R:reel
B: James Kerr "Merry Melodies" v.3 p.13 #106
Z: 2016 John Chambers <jc:trillian.mit.edu>
M: C
L: 1/8
K: A
[|\
vAcca ecca | ecca e2(3(dcB) |\
Acca ecca | aBBc d2(3(dcB) |\
Acca ecca | ecca e2(3(efg) |\
afge fdec | dBBc d2(3(dcB) |]
[|\
Acec fdec | Acec e2(3(dcB) |\
Acec fdec | dBBc d2(3(dcB) |\
Acec fdec | Acec e2(3(efg) |\
(3(agf) (3(gfe) (3(fed) (3(edc) | dBBc d2(3(dcB) |]

%%sep 1 1 500
%%sep 1 1 500

